round/svg/assignment_late.svg

<svg xmlns="http://www.w3.org/2000/svg" width="24" height="24"><path fill="none" d="M0 0h24v24H0V0z"/><g fill="currentColor"><path d="M19 3h-4.18C14.4 1.84 13.3 1 12 1s-2.4.84-2.82 2H5c-1.1 0-2 .9-2 2v14c0 1.1.9 2 2 2h14c1.1 0 2-.9 2-2V5c0-1.1-.9-2-2-2zm-6 15h-2v-2h2v2zm0-5c0 .55-.45 1-1 1s-1-.45-1-1V9c0-.55.45-1 1-1s1 .45 1 1v4zm-1-8c-.55 0-1-.45-1-1s.45-1 1-1 1 .45 1 1-.45 1-1 1z"/></g></svg>

<?xml version="1.0" encoding="utf-8"?>
<!-- Generator: Adobe Illustrator 19.1.0, SVG Export Plug-In . SVG Version: 6.00 Build 0)  -->
<svg version="1.1" xmlns="http://www.w3.org/2000/svg" xmlns:xlink="http://www.w3.org/1999/xlink" x="0px" y="0px" width="24px"
	 height="24px" viewBox="0 0 24 24" enable-background="new 0 0 24 24" xml:space="preserve">
<g id="Header_x2F_BG" display="none">
	<rect x="-182" y="-138" display="inline" fill="#F1F1F2" width="520" height="520"/>
</g>
<g id="Bounding_Boxes">
	<g id="ui_x5F_spec_x5F_header_copy_3">
	</g>
	<path fill="none" d="M0,0h24v24H0V0z"/>
</g>
<g id="Rounded" fill="currentColor">
	<g id="ui_x5F_spec_x5F_header_copy_5">
	</g>
	<path d="M19,3h-4.18C14.4,1.84,13.3,1,12,1S9.6,1.84,9.18,3H5C3.9,3,3,3.9,3,5v14c0,1.1,0.9,2,2,2h14c1.1,0,2-0.9,2-2V5
		C21,3.9,20.1,3,19,3z M13,18h-2v-2h2V18z M13,13c0,0.55-0.45,1-1,1s-1-0.45-1-1V9c0-0.55,0.45-1,1-1s1,0.45,1,1V13z M12,5
		c-0.55,0-1-0.45-1-1s0.45-1,1-1s1,0.45,1,1S12.55,5,12,5z"/>
</g>
<g id="Sharp" display="none">
	<g id="ui_x5F_spec_x5F_header_copy_4" display="inline">
	</g>
	<path display="inline" d="M21,3h-6.18C14.4,1.84,13.3,1,12,1S9.6,1.84,9.18,3H3v18h18V3z M13,18h-2v-2h2V18z M13,14h-2V8h2V14z
		 M12,5c-0.55,0-1-0.45-1-1s0.45-1,1-1s1,0.45,1,1S12.55,5,12,5z"/>
</g>
<g id="Outline" display="none">
	<g id="ui_x5F_spec_x5F_header" display="inline">
	</g>
	<g display="inline">
		<rect x="11" y="15" width="2" height="2"/>
		<rect x="11" y="7" width="2" height="6"/>
		<path d="M19,3L19,3h-4.18C14.4,1.84,13.3,1,12,1c-1.3,0-2.4,0.84-2.82,2H5h0C4.86,3,4.73,3.01,4.6,3.04
			C4.21,3.12,3.86,3.32,3.59,3.59c-0.18,0.18-0.33,0.4-0.43,0.64C3.06,4.46,3,4.72,3,5v14c0,0.27,0.06,0.54,0.16,0.78
			c0.1,0.24,0.25,0.45,0.43,0.64c0.27,0.27,0.62,0.47,1.01,0.55C4.73,20.99,4.86,21,5,21h0h14h0c1.1,0,2-0.9,2-2V5
			C21,3.9,20.1,3,19,3z M12,2.75c0.41,0,0.75,0.34,0.75,0.75c0,0.41-0.34,0.75-0.75,0.75c-0.41,0-0.75-0.34-0.75-0.75
			C11.25,3.09,11.59,2.75,12,2.75z M19,19H5V5h14V19z"/>
	</g>
</g>
<g id="Duotone" display="none">
	<g id="ui_x5F_spec_x5F_header_copy_2" display="inline">
	</g>
	<g display="inline">
		<path opacity="0.3" d="M5,5v14h14V5H5z M13,17h-2v-2h2V17z M13,13h-2V7h2V13z"/>
		<g>
			<rect x="11" y="15" width="2" height="2"/>
			<rect x="11" y="7" width="2" height="6"/>
			<path d="M19,3L19,3h-4.18C14.4,1.84,13.3,1,12,1c-1.3,0-2.4,0.84-2.82,2H5C4.86,3,4.73,3.01,4.6,3.04
				C4.21,3.12,3.86,3.32,3.59,3.59c-0.18,0.18-0.33,0.4-0.43,0.64S3,4.72,3,5v14c0,0.27,0.06,0.54,0.16,0.78
				c0.1,0.24,0.25,0.45,0.43,0.64c0.27,0.27,0.62,0.47,1.01,0.55C4.73,20.99,4.86,21,5,21h14h0c1.1,0,2-0.9,2-2V5
				C21,3.9,20.1,3,19,3z M12,2.75c0.41,0,0.75,0.34,0.75,0.75c0,0.41-0.34,0.75-0.75,0.75c-0.41,0-0.75-0.34-0.75-0.75
				C11.25,3.09,11.59,2.75,12,2.75z M19,19H5V5h14V19z"/>
		</g>
	</g>
</g>
<g id="Fill" display="none">
	<g id="ui_x5F_spec_x5F_header_copy" display="inline">
	</g>
	<path display="inline" d="M19,3h-4.18C14.4,1.84,13.3,1,12,1S9.6,1.84,9.18,3H5C3.9,3,3,3.9,3,5v14c0,1.1,0.9,2,2,2h14
		c1.1,0,2-0.9,2-2V5C21,3.9,20.1,3,19,3z M13,18h-2v-2h2V18z M13,14h-2V8h2V14z M12,5c-0.55,0-1-0.45-1-1s0.45-1,1-1s1,0.45,1,1
		S12.55,5,12,5z"/>
</g>
<g id="nyt_x5F_exporter_x5F_info" display="none">
	<g display="inline">
		<path d="M-0.94-7.4l1.27,3.43c0.13,0.38,0.28,0.84,0.37,1.19h0.02C0.84-3.14,0.96-3.58,1.1-4L2.25-7.4h1.12L1.78-3.27
			C1.03-1.28,0.51-0.26-0.21,0.37C-0.72,0.82-1.24,1-1.5,1.05l-0.26-0.89c0.26-0.08,0.61-0.25,0.92-0.52
			c0.29-0.23,0.65-0.64,0.89-1.18c0.05-0.11,0.08-0.19,0.08-0.25c0-0.06-0.02-0.14-0.07-0.28L-2.09-7.4H-0.94z"/>
		<path d="M0.25,9.85c0,2.15-1.49,3.08-2.89,3.08c-1.57,0-2.78-1.15-2.78-2.99c0-1.94,1.27-3.08,2.88-3.08
			C-0.88,6.86,0.25,8.07,0.25,9.85z M-4.36,9.91c0,1.27,0.73,2.23,1.76,2.23c1.01,0,1.76-0.95,1.76-2.25c0-0.98-0.49-2.23-1.74-2.23
			C-3.82,7.65-4.36,8.81-4.36,9.91z"/>
		<path d="M4.8,12.8l-0.08-0.73H4.68c-0.32,0.46-0.95,0.86-1.77,0.86c-1.18,0-1.77-0.83-1.77-1.67c0-1.4,1.25-2.17,3.49-2.16V8.99
			c0-0.48-0.13-1.34-1.32-1.34c-0.54,0-1.1,0.17-1.51,0.43l-0.24-0.7c0.48-0.31,1.18-0.52,1.91-0.52c1.77,0,2.21,1.21,2.21,2.37
			v2.17c0,0.5,0.02,1,0.1,1.39H4.8z M4.64,9.84c-1.15-0.02-2.46,0.18-2.46,1.31c0,0.68,0.46,1.01,1,1.01c0.76,0,1.24-0.48,1.4-0.97
			c0.04-0.11,0.06-0.23,0.06-0.34V9.84z"/>
		<path d="M7.37,8.81c0-0.68-0.01-1.27-0.05-1.81h0.92l0.04,1.14h0.05c0.26-0.78,0.9-1.27,1.61-1.27c0.12,0,0.2,0.01,0.3,0.04v1
			c-0.11-0.02-0.22-0.04-0.36-0.04c-0.74,0-1.27,0.56-1.42,1.36C8.43,9.36,8.41,9.53,8.41,9.71v3.09H7.37V8.81z"/>
		<path d="M16.18,4.28v7.02c0,0.52,0.01,1.1,0.05,1.5h-0.95l-0.05-1.01h-0.02c-0.32,0.65-1.03,1.14-1.98,1.14
			c-1.4,0-2.48-1.19-2.48-2.95c-0.01-1.93,1.19-3.12,2.6-3.12c0.89,0,1.49,0.42,1.75,0.89h0.02V4.28H16.18z M15.13,9.36
			c0-0.13-0.01-0.31-0.05-0.44c-0.16-0.67-0.73-1.22-1.52-1.22c-1.09,0-1.74,0.96-1.74,2.24c0,1.18,0.58,2.15,1.72,2.15
			c0.71,0,1.35-0.47,1.55-1.26c0.04-0.14,0.05-0.29,0.05-0.46V9.36z"/>
		<path d="M17.79,11.72c0.31,0.2,0.86,0.42,1.39,0.42c0.77,0,1.13-0.38,1.13-0.86c0-0.5-0.3-0.78-1.08-1.07
			c-1.04-0.37-1.54-0.95-1.54-1.64c0-0.94,0.76-1.7,2-1.7c0.59,0,1.1,0.17,1.43,0.36l-0.26,0.77c-0.23-0.14-0.65-0.34-1.19-0.34
			c-0.62,0-0.97,0.36-0.97,0.79c0,0.48,0.35,0.7,1.1,0.98c1.01,0.38,1.52,0.89,1.52,1.75c0,1.02-0.79,1.74-2.17,1.74
			c-0.64,0-1.22-0.16-1.63-0.4L17.79,11.72z"/>
		<path d="M22.61,9.29l5.56-2.87v0.83L23.48,9.6v0.02l4.69,2.35v0.83l-5.56-2.87V9.29z"/>
	</g>
</g>
</svg>
